flaticon/medical/dropper.svg

<svg xmlns="http://www.w3.org/2000/svg" width="32" height="32" viewBox="0 0 24 24">
    <path d="M17.058594 17.871094C17.058594 18.097656 16.878906 18.277344 16.652344 18.277344 16.429688 18.277344 16.246094 18.097656 16.246094 17.871094 16.246094 17.648438 16.429688 17.464844 16.652344 17.464844 16.878906 17.464844 17.058594 17.648438 17.058594 17.871094zM19.496094 17.871094C19.496094 18.097656 19.316406 18.277344 19.089844 18.277344 18.867188 18.277344 18.683594 18.097656 18.683594 17.871094 18.683594 17.648438 18.867188 17.464844 19.089844 17.464844 19.316406 17.464844 19.496094 17.648438 19.496094 17.871094zM18.277344 18.683594C18.277344 18.910156 18.097656 19.089844 17.871094 19.089844 17.648438 19.089844 17.464844 18.910156 17.464844 18.683594 17.464844 18.460938 17.648438 18.277344 17.871094 18.277344 18.097656 18.277344 18.277344 18.460938 18.277344 18.683594zM19.496094 19.902344C19.496094 20.128906 19.316406 20.308594 19.089844 20.308594 18.867188 20.308594 18.683594 20.128906 18.683594 19.902344 18.683594 19.679688 18.867188 19.496094 19.089844 19.496094 19.316406 19.496094 19.496094 19.679688 19.496094 19.902344zM20.714844 18.683594C20.714844 18.910156 20.535156 19.089844 20.308594 19.089844 20.085938 19.089844 19.902344 18.910156 19.902344 18.683594 19.902344 18.460938 20.085938 18.277344 20.308594 18.277344 20.535156 18.277344 20.714844 18.460938 20.714844 18.683594zM20.714844 21.121094C20.714844 21.347656 20.535156 21.527344 20.308594 21.527344 20.085938 21.527344 19.902344 21.347656 19.902344 21.121094 19.902344 20.898438 20.085938 20.714844 20.308594 20.714844 20.535156 20.714844 20.714844 20.898438 20.714844 21.121094zM20.714844 21.121094"/>
    <path d="M 23.644531 21.921875 L 22.582031 20.859375 L 22.007812 17.984375 L 11.140625 7.117188 L 12.355469 5.902344 L 10.34375 3.890625 L 9.128906 5.105469 L 8.390625 4.367188 L 8.964844 3.792969 C 9.121094 3.636719 9.121094 3.378906 8.964844 3.21875 C 8.804688 3.0625 8.546875 3.0625 8.390625 3.21875 L 7.816406 3.792969 L 7.796875 3.777344 L 4.851562 0.832031 C 3.746094 -0.277344 1.941406 -0.277344 0.832031 0.832031 C -0.277344 1.941406 -0.277344 3.746094 0.832031 4.851562 L 3.792969 7.816406 L 3.21875 8.390625 C 3.0625 8.550781 3.0625 8.804688 3.21875 8.964844 C 3.300781 9.042969 3.402344 9.082031 3.507812 9.082031 C 3.609375 9.082031 3.714844 9.042969 3.792969 8.964844 L 4.367188 8.390625 L 5.105469 9.128906 L 4.023438 10.210938 L 6.035156 12.222656 L 7.117188 11.140625 L 17.984375 22.007812 L 20.859375 22.582031 L 21.917969 23.644531 C 22.15625 23.882812 22.46875 24 22.78125 24 C 23.09375 24 23.40625 23.882812 23.644531 23.644531 C 23.703125 23.585938 23.753906 23.519531 23.800781 23.453125 C 23.933594 23.25 24 23.015625 24 22.78125 C 24 22.46875 23.882812 22.15625 23.644531 21.921875 Z M 8.90625 8.203125 L 8.046875 7.339844 L 8.90625 6.476562 L 9.769531 7.339844 Z M 7.46875 7.914062 L 8.332031 8.777344 L 7.46875 9.636719 L 6.609375 8.777344 Z M 10.34375 5.042969 L 11.203125 5.902344 L 10.566406 6.542969 L 10.34375 6.765625 L 9.480469 5.902344 L 9.703125 5.683594 Z M 1.40625 1.40625 C 1.800781 1.011719 2.320312 0.8125 2.84375 0.8125 C 3.363281 0.8125 3.882812 1.011719 4.277344 1.40625 L 7.222656 4.351562 L 4.351562 7.222656 L 1.40625 4.277344 C 0.613281 3.488281 0.613281 2.199219 1.40625 1.40625 Z M 4.941406 7.816406 L 7.816406 4.941406 L 8.554688 5.679688 L 5.679688 8.554688 Z M 6.035156 11.074219 L 5.171875 10.210938 L 5.679688 9.703125 L 6.035156 9.351562 L 6.894531 10.210938 L 6.542969 10.566406 Z M 10.566406 7.691406 L 19.121094 16.246094 L 13.574219 16.246094 L 14.097656 15.722656 C 14.257812 15.5625 14.257812 15.308594 14.097656 15.148438 C 13.9375 14.988281 13.683594 14.988281 13.523438 15.148438 L 12.898438 15.773438 L 12.253906 15.128906 L 12.878906 14.503906 C 13.039062 14.34375 13.039062 14.089844 12.878906 13.929688 C 12.71875 13.769531 12.464844 13.769531 12.304688 13.929688 L 11.679688 14.554688 L 11.035156 13.910156 L 11.660156 13.285156 C 11.820312 13.125 11.820312 12.871094 11.660156 12.710938 C 11.5 12.550781 11.246094 12.550781 11.085938 12.710938 L 10.460938 13.335938 L 9.816406 12.691406 L 10.441406 12.066406 C 10.601562 11.90625 10.601562 11.652344 10.441406 11.492188 C 10.28125 11.332031 10.027344 11.332031 9.867188 11.492188 L 9.242188 12.117188 L 7.691406 10.566406 Z M 23.070312 23.070312 C 22.910156 23.226562 22.652344 23.226562 22.496094 23.070312 L 21.257812 21.832031 L 18.386719 21.257812 L 17.054688 19.925781 C 17.054688 19.917969 17.058594 19.914062 17.058594 19.902344 C 17.058594 19.679688 16.878906 19.496094 16.652344 19.496094 C 16.644531 19.496094 16.636719 19.5 16.628906 19.503906 L 14.1875 17.058594 L 19.933594 17.058594 L 21.257812 18.386719 L 21.484375 19.507812 C 21.28125 19.53125 21.121094 19.695312 21.121094 19.902344 C 21.121094 20.128906 21.304688 20.308594 21.527344 20.308594 C 21.566406 20.308594 21.601562 20.296875 21.640625 20.289062 L 21.832031 21.257812 L 23.070312 22.496094 C 23.226562 22.652344 23.226562 22.910156 23.070312 23.070312 Z M 23.070312 23.070312"/>
</svg>

<svg xmlns="http://www.w3.org/2000/svg" width="32" height="32" viewBox="0 0 24 24">
    <path d="M17.059 17.871c0 .227-.18.406-.407.406a.406.406 0 1 1 .407-.406zm0 0M19.496 17.871a.406.406 0 1 1-.813 0 .406.406 0 0 1 .813 0zm0 0M18.277 18.684a.406.406 0 1 1-.813 0 .406.406 0 0 1 .813 0zm0 0M19.496 19.902a.406.406 0 1 1-.813 0 .406.406 0 0 1 .813 0zm0 0M20.715 18.684a.406.406 0 1 1-.813 0 .406.406 0 0 1 .813 0zm0 0M20.715 21.121a.406.406 0 1 1-.813 0 .406.406 0 0 1 .813 0zm0 0"/>
    <path d="M23.645 21.922l-1.063-1.063-.574-2.875L11.14 7.117l1.214-1.215-2.011-2.011-1.215 1.214-.738-.738.574-.574a.41.41 0 0 0 0-.574.41.41 0 0 0-.574 0l-.575.574-.02-.016L4.853.832a2.843 2.843 0 0 0-4.02 4.02l2.961 2.964-.574.575a.41.41 0 0 0 0 .574.414.414 0 0 0 .289.117c.101 0 .207-.039.285-.117l.574-.574.738.738-1.082 1.082 2.012 2.012 1.082-1.082 10.867 10.867 2.875.574 1.059 1.063c.238.238.55.355.863.355A1.215 1.215 0 0 0 24 22.781a1.2 1.2 0 0 0-.355-.86zM8.906 8.203l-.86-.863.86-.863.864.863zM7.47 7.914l.863.863-.863.86-.86-.86zm2.875-2.871l.86.86-.638.64-.222.223-.864-.864.223-.218zM1.406 1.406A2.025 2.025 0 0 1 2.844.813c.52 0 1.039.199 1.433.593l2.946 2.946-2.871 2.87-2.946-2.945a2.03 2.03 0 0 1 0-2.87zm3.535 6.41l2.875-2.875.739.739L5.68 8.555zm1.094 3.258l-.863-.863.508-.508.355-.351.86.859-.352.355zm4.531-3.383l8.555 8.555h-5.547l.524-.523a.403.403 0 0 0 0-.575.403.403 0 0 0-.575 0l-.625.625-.644-.644.625-.625a.403.403 0 0 0 0-.574.403.403 0 0 0-.574 0l-.625.625-.645-.645.625-.625a.403.403 0 0 0 0-.574.403.403 0 0 0-.574 0l-.625.625-.645-.645.625-.625a.403.403 0 0 0 0-.574.403.403 0 0 0-.574 0l-.625.625-1.55-1.55zm12.504 15.38a.41.41 0 0 1-.574 0l-1.238-1.239-2.871-.574-1.332-1.332c0-.008.004-.012.004-.024a.406.406 0 0 0-.407-.406c-.007 0-.015.004-.023.008l-2.442-2.445h5.747l1.324 1.328.226 1.12a.402.402 0 0 0-.363.395c0 .227.184.407.406.407.04 0 .075-.012.114-.02l.191.969 1.238 1.238a.41.41 0 0 1 0 .574zm0 0"/>
</svg>
